X: 28225
T: Mrs. Dundas McQueen
R: reel
M: 4/4
K: Amajor
|:a|{d/}cAec {c/}dBfd|{d/}cAec e/f/g a>e|{d/}cAec {c/}dBfB|{d/}cA A/A/A Tf2 e:|
|:g|a/g/f/e/ ac dBfg|aeag Tf2 e/f/g|aefc dBed|1 cA A/A/A Tf2 e:|2 cAAa faea||

